X:9
T:Blooming Meadows
S:Trad, arr. Paddy O'Brien
R:jig
E:10
I:speed 350
M:6/8
K:G
G1/2E1/2|~D2G ~G2A|~B2d cAG|~F2D DED|~F2G AGF|\
DB,D ~G2A|BAG ABc|ded cAF|GAG G2:|\
B1/2d1/2|~g2d def|~g2a bag|~f2d d^cd|~f2g afd|1 ~g2d def|\
~g2a bag|fed cAF|GAG G2:|2 ~g2e fed|edB cde|fed cAF|G3 G2||\
A|~B2G~c2A|~B2d cAG|~F2D DED|~F2G AFD|\
~B2G ~c2A|BAG ABc|ded cAF|G3 G2:|**


\vfill\eject

